SF_Symbols/backward.end.svg

<?xml version="1.0" encoding="UTF-8"?>
<svg xmlns="http://www.w3.org/2000/svg" xmlns:xlink="http://www.w3.org/1999/xlink" width="24" height="24" viewBox="0 0 24 24" version="1.1">
<g id="surface1">
<path style=" stroke:none;fill-rule:nonzero;fill:rgb(100%,100%,100%);fill-opacity:1;" d="M 2.785156 23.691406 C 3.105469 23.691406 3.378906 23.585938 3.601562 23.371094 C 3.824219 23.15625 3.9375 22.894531 3.9375 22.582031 L 3.9375 2.691406 C 3.9375 2.371094 3.824219 2.101562 3.601562 1.886719 C 3.378906 1.675781 3.105469 1.566406 2.785156 1.566406 C 2.472656 1.566406 2.207031 1.675781 1.980469 1.886719 C 1.757812 2.101562 1.648438 2.371094 1.648438 2.691406 L 1.648438 22.582031 C 1.648438 22.894531 1.757812 23.15625 1.980469 23.371094 C 2.207031 23.585938 2.472656 23.691406 2.785156 23.691406 Z M 20.410156 23.15625 C 20.9375 23.15625 21.386719 22.960938 21.761719 22.566406 C 22.148438 22.175781 22.339844 21.601562 22.339844 20.851562 L 22.339844 4.40625 C 22.339844 3.65625 22.148438 3.085938 21.761719 2.691406 C 21.386719 2.300781 20.9375 2.101562 20.410156 2.101562 C 20.144531 2.101562 19.886719 2.148438 19.648438 2.238281 C 19.40625 2.316406 19.148438 2.4375 18.871094 2.597656 L 5.222656 10.632812 C 4.75 10.917969 4.40625 11.226562 4.191406 11.558594 C 3.976562 11.886719 3.871094 12.246094 3.871094 12.628906 C 3.871094 13.011719 3.976562 13.371094 4.191406 13.699219 C 4.40625 14.03125 4.75 14.339844 5.222656 14.625 L 18.871094 22.660156 C 19.148438 22.820312 19.40625 22.941406 19.648438 23.023438 C 19.886719 23.113281 20.144531 23.15625 20.410156 23.15625 Z M 19.835938 20.679688 C 19.789062 20.679688 19.738281 20.667969 19.675781 20.652344 C 19.621094 20.632812 19.5625 20.601562 19.5 20.558594 L 6.777344 13.003906 C 6.582031 12.898438 6.480469 12.773438 6.480469 12.628906 C 6.480469 12.488281 6.582031 12.363281 6.777344 12.253906 L 19.5 4.699219 C 19.570312 4.65625 19.632812 4.625 19.6875 4.605469 C 19.742188 4.589844 19.789062 4.582031 19.835938 4.582031 C 19.925781 4.582031 20.003906 4.617188 20.074219 4.6875 C 20.15625 4.75 20.195312 4.847656 20.195312 4.980469 L 20.195312 20.277344 C 20.195312 20.410156 20.15625 20.511719 20.074219 20.585938 C 20.003906 20.648438 19.925781 20.679688 19.835938 20.679688 Z M 19.835938 20.679688 "/>
</g>
</svg>

<svg xmlns="http://www.w3.org/2000/svg" width="24" height="24"><path style="stroke:none;fill-rule:nonzero;fill:#fff;fill-opacity:1" d="M2.785 23.691c.32 0 .594-.105.817-.32.222-.215.336-.476.336-.789V2.692c0-.32-.114-.59-.336-.805a1.151 1.151 0 0 0-.817-.32c-.312 0-.578.109-.805.32-.218.21-.34.5-.332.804v19.891c0 .313.11.574.332.79.227.214.493.32.805.32Zm17.625-.535c.527 0 .977-.195 1.352-.59.386-.39.578-.964.578-1.714V4.406c0-.75-.192-1.32-.578-1.715-.375-.39-.825-.59-1.352-.59-.265 0-.523.047-.762.137-.242.078-.5.2-.777.36L5.223 10.633c-.473.285-.817.594-1.032.926-.21.316-.32.691-.32 1.07 0 .383.106.742.32 1.07.215.332.559.64 1.032.926L18.87 22.66c.277.16.535.281.777.363.239.09.497.133.762.133Zm-.574-2.476a.723.723 0 0 1-.16-.028.76.76 0 0 1-.176-.093L6.777 13.004c-.195-.106-.297-.23-.297-.375 0-.14.102-.266.297-.375L19.5 4.699c.07-.043.133-.074.188-.094a.472.472 0 0 1 .148-.023c.09 0 .168.035.238.106.082.062.121.16.121.292v15.297c0 .133-.039.235-.12.309a.333.333 0 0 1-.24.094Zm0 0"/></svg>
